X:1
T:[ID 8-101]
T:[ID 8-101]
T:Bezeichnung standardisiert: Anglaise Angl.
T:Urheber unbekannt Datum in der hier transkribierten schriftlichen Quelle: 1792
C:Urheber unbekannt
C:Datum in der hier transkribierten schriftlichen Quelle: 1792
L:1/8
M:2/4
K:C
V:1 treble 
V:1
 cege | gege | fdcB | c/B/c/d/ c2 | cege | gege | fdec | Bd G2 :: G/G/G/G/G/G/G/G/ | ce G2 | fdec | %11
 Bd G2 | cege | cege | fdcB | c2 c2 :: GF E2 | GF E2 | ccBc | dB G2 | GF E2 | GF E2 | ccdB | %23
 c2 c2 :: ddcc | BBAA | GGGF | F2 E2 | c2 E2 | A2 F2 | B/c/d/e/f/d/c/B/ | c2 c2 :| %32

